assets/gi/gi-abstract-024.svg

<svg xmlns="http://www.w3.org/2000/svg" width="100%" height="100%" viewBox="-35.84 -35.84 583.68 583.68"><path d="m40.2404,21 356.1721,28.2001c35.5099,3.5756 61.6043,27.0637 64.4779,60.3656l28.7875,363.075c.902-4.0293 1.3221-8.3444 1.3221-12.6313v-378.6437c0-33.4102-28.764-60.3656-64.4779-60.3656h-386.2817zm-17.9182,18.3594c-.902,4.0293-1.3221,8.3445-1.3221,12.6313v378.6437c0,33.4103 28.764,60.3656 64.4779,60.3656h386.2817l-356.0251-28.2001c-35.5099-3.5756-61.7514-27.0637-64.625-60.3656l-28.7875-363.075zm233.6779,14.5406c-51.7315,0-103.4508,19.7315-142.9096,59.1907-78.9182,78.9183-78.9182,206.9005 0,285.8187s206.901,78.9183 285.8192,0 78.9182-206.9004 0-285.8187c-39.4593-39.4591-91.1781-59.1906-142.9096-59.1907zm32.7529,26.8781c38.5865.1319 75.0063,13.3186 102.0783,40.3906 61.8788,61.8791 51.6695,172.4626-22.7659,246.8969-74.4334,74.4343-185.0173,84.6448-246.8966,22.7656s-51.6695-172.3157 22.7659-246.75c41.869-41.8692 95.2074-63.472 144.8183-63.3031zm-32.7529,39.6563c-34.6861,7e-05-69.3053,13.3458-95.7626,39.8031-52.9145,52.9147-52.9145,138.6103 0,191.5249s138.6105,52.9147 191.525,0 52.9145-138.6103 0-191.5249c-26.4573-26.4574-61.0765-39.8032-95.7625-39.8031zm-22.0313,18.0656c33.2642-.1132 69.0115,14.3735 97.0841,42.4469 49.9084,49.9082 56.7642,123.8912 15.275,165.3813s-115.4734,34.78-165.3808-15.1282-56.7642-124.0381-15.275-165.5281c18.1519-18.1518 42.425-27.0838 68.2966-27.1719zm22.0313,44.0625c-18.8165,0-37.4943,7.2384-51.8471,21.5907-28.7048,28.7045-28.7048,75.1361 0,103.8406s74.9899,28.7046 103.6942,0 28.7048-75.1361 0-103.8406c-14.3514-14.3523-33.0307-21.5907-51.8471-21.5907zm11.8971,9.6938c14.0351.0504 27.3127,4.8407 37.1592,14.6875 22.5069,22.507 18.7013,62.6671-8.3716,89.7407s-67.2339,30.8789-89.7409,8.3719-18.7013-62.6671 8.3716-89.7407c15.2294-15.2289 34.5366-23.1208 52.5817-23.0594zm-11.8971,25.4094c-21.205,0-38.3346,17.1292-38.3346,38.3344s17.1296,38.3343 38.3346,38.3343c21.205,0 38.3346-17.1292 38.3346-38.3343s-17.1296-38.3344-38.3346-38.3344z"/></svg>

<svg xmlns="http://www.w3.org/2000/svg" width="100%" height="100%" viewBox="-35.84 -35.84 583.68 583.68"><path d="M40.24 21l356.173 28.2c35.51 3.576 61.604 27.064 64.477 60.366l28.788 363.075c.902-4.03 1.322-8.345 1.322-12.632V81.366C491 47.956 462.236 21 426.522 21H40.24zM22.322 39.36C21.42 43.388 21 47.703 21 51.99v378.644C21 464.044 49.764 491 85.478 491H471.76l-356.025-28.2c-35.51-3.576-61.752-27.064-64.625-60.366L22.322 39.36zM256 53.9c-51.731 0-103.45 19.732-142.91 59.19-78.918 78.919-78.918 206.901 0 285.82s206.901 78.918 285.82 0 78.918-206.901 0-285.82C359.45 73.633 307.732 53.9 256 53.9zm32.753 26.878c38.587.132 75.006 13.319 102.078 40.39 61.88 61.88 51.67 172.463-22.766 246.898C293.632 442.5 183.048 452.71 121.17 390.83s-51.67-172.315 22.766-246.75c41.869-41.869 95.207-63.472 144.818-63.303zM256 120.434c-34.686 0-69.305 13.346-95.763 39.803-52.914 52.915-52.914 138.61 0 191.525s138.611 52.915 191.525 0 52.915-138.61 0-191.524c-26.457-26.458-61.076-39.804-95.762-39.804zM233.97 138.5c33.264-.113 69.011 14.373 97.084 42.447 49.908 49.908 56.764 123.891 15.275 165.381s-115.473 34.78-165.38-15.128-56.765-124.038-15.276-165.528c18.152-18.152 42.425-27.084 68.297-27.172zM256 182.563c-18.816 0-37.494 7.238-51.847 21.59-28.705 28.705-28.705 75.136 0 103.84s74.99 28.705 103.694 0 28.705-75.135 0-103.84c-14.351-14.352-33.03-21.59-51.847-21.59zm11.897 9.693c14.035.05 27.313 4.841 37.16 14.688 22.506 22.507 18.7 62.667-8.372 89.74s-67.234 30.88-89.741 8.372-18.701-62.667 8.371-89.74c15.23-15.23 34.537-23.121 52.582-23.06zM256 217.666c-21.205 0-38.335 17.129-38.335 38.334s17.13 38.334 38.335 38.334c21.205 0 38.335-17.129 38.335-38.334s-17.13-38.334-38.335-38.334z"/></svg>
